public/icons/bridge/fantom.svg

<svg width="24" height="24" viewBox="0 0 24 24" fill="none" xmlns="http://www.w3.org/2000/svg">
<rect width="24" height="24" rx="12" fill="#26B7EA"/>
<path d="M11.3429 5.14578C11.5455 5.04979 11.7668 5 11.9909 5C12.215 5 12.4364 5.04979 12.639 5.14578L16.4031 7.13757C16.4981 7.18045 16.5812 7.24605 16.645 7.32861C16.7088 7.41118 16.7514 7.50817 16.769 7.61107V17.6158C16.7602 17.728 16.7211 17.8357 16.656 17.9274C16.5909 18.0192 16.5021 18.0915 16.3993 18.1367L12.6413 20.1269C12.4387 20.2229 12.2173 20.2727 11.9932 20.2727C11.7691 20.2727 11.5478 20.2229 11.3452 20.1269L7.58031 18.1352C7.4786 18.0893 7.39125 18.0166 7.32759 17.9249C7.26394 17.8331 7.22638 17.7258 7.21893 17.6143C7.21893 17.5944 7.21893 17.5776 7.21893 17.5639V7.67675C7.21893 7.66301 7.21893 7.64926 7.21893 7.63551V7.60955C7.23364 7.50644 7.27443 7.40881 7.33742 7.32594C7.4004 7.24306 7.48349 7.17769 7.57879 7.13604L11.3429 5.14578ZM16.1804 13.1924L12.6413 15.065C12.4387 15.161 12.2173 15.2108 11.9932 15.2108C11.7691 15.2108 11.5478 15.161 11.3452 15.065L7.81133 13.1962V17.596L11.3429 19.4549C11.5355 19.577 11.7531 19.654 11.9795 19.6802H11.9917C12.2122 19.6581 12.4251 19.5868 12.6146 19.4717L16.1797 17.5799L16.1804 13.1924ZM6.60746 17.3982C6.58987 17.6758 6.63523 17.9539 6.74013 18.2115C6.82915 18.3757 6.96088 18.5127 7.12134 18.6079L7.13277 18.6155C7.17699 18.6453 7.22503 18.6766 7.28526 18.7133L7.35464 18.7561L7.56812 18.8851L7.26315 19.393L7.02375 19.2487L6.98334 19.2242C6.91396 19.1815 6.85678 19.1479 6.80341 19.1089C6.52473 18.9334 6.30227 18.6814 6.16251 18.3828C6.02275 18.0842 5.97157 17.7518 6.01506 17.4249V17.3982H6.60746ZM11.6959 10.5102C11.6697 10.5191 11.6442 10.5301 11.6196 10.543L7.85707 12.5333L7.84564 12.5394H7.85174L7.86012 12.544L11.6219 14.535C11.6464 14.5479 11.6719 14.5589 11.6982 14.5678L11.6959 10.5102ZM12.2883 10.5102V14.5732C12.3145 14.5642 12.34 14.5532 12.3645 14.5403L16.1263 12.5493L16.1377 12.5432H16.1316L16.1233 12.5386L12.3645 10.5422C12.34 10.5296 12.3145 10.5189 12.2883 10.5102ZM16.1804 8.31981L12.806 10.1054L16.1812 11.891L16.1804 8.31981ZM7.81133 8.32363V11.8872L11.1782 10.1054L7.81133 8.32363ZM12.3645 5.66969C12.247 5.61855 12.1202 5.59215 11.9921 5.59215C11.8639 5.59215 11.7372 5.61855 11.6196 5.66969L7.85707 7.66072L7.84488 7.66682H7.85097L7.85936 7.67141L11.6196 9.66778C11.7372 9.71892 11.8639 9.74531 11.9921 9.74531C12.1202 9.74531 12.247 9.71892 12.3645 9.66778L16.1263 7.67675L16.1377 7.67064H16.1316L16.1233 7.66606L12.3645 5.66969ZM16.7362 5.88812L16.9756 6.03246L17.0161 6.0569C17.0854 6.09967 17.1426 6.13327 17.196 6.17222C17.4747 6.34758 17.6972 6.59945 17.8371 6.89786C17.977 7.19627 18.0284 7.52865 17.9851 7.85546V7.88219H17.3927C17.4102 7.60477 17.3648 7.32699 17.26 7.06959C17.171 6.90542 17.0393 6.76845 16.8788 6.67322L16.8674 6.66559C16.8232 6.6358 16.7751 6.60449 16.7149 6.56783L16.6432 6.52659L16.4297 6.39752L16.7362 5.88812Z" fill="white"/>
</svg>

<svg width="24" height="24" fill="none" xmlns="http://www.w3.org/2000/svg"><rect width="24" height="24" rx="12" fill="#26B7EA"/><path d="M11.343 5.146a1.513 1.513 0 0 1 1.296 0l3.764 1.992a.637.637 0 0 1 .366.473v10.005a.622.622 0 0 1-.37.52l-3.758 1.99a1.514 1.514 0 0 1-1.296 0l-3.765-1.99a.616.616 0 0 1-.361-.522V7.61a.611.611 0 0 1 .36-.474l3.764-1.99Zm4.837 8.046-3.539 1.873a1.514 1.514 0 0 1-1.296 0l-3.534-1.869v4.4l3.532 1.859c.193.122.41.199.636.225h.013a1.49 1.49 0 0 0 .623-.208l3.565-1.892v-4.388Zm-9.573 4.206c-.017.278.028.556.133.814.09.164.22.3.381.396l.012.008c.044.03.092.06.152.097l.07.043.213.13-.305.507-.24-.144-.04-.025c-.069-.043-.126-.076-.18-.115a1.72 1.72 0 0 1-.788-1.684v-.027h.592Zm5.089-6.888a.535.535 0 0 0-.076.033l-3.763 1.99-.011.006h.006l.008.005 3.762 1.991c.024.013.05.024.076.033l-.002-4.058Zm.592 0v4.063a.54.54 0 0 0 .076-.033l3.762-1.99.012-.007h-.006l-.009-.004-3.759-1.997a.536.536 0 0 0-.076-.032Zm3.892-2.19-3.374 1.785 3.375 1.786V8.32Zm-8.369.004v3.563l3.367-1.782-3.367-1.781Zm4.553-2.654a.933.933 0 0 0-.744 0L7.857 7.66l-.012.007h.006l.008.004 3.76 1.997a.934.934 0 0 0 .745 0l3.762-1.991.012-.006h-.006l-.009-.005-3.759-1.996Zm4.372.218.24.144.04.025c.07.043.127.076.18.115a1.72 1.72 0 0 1 .79 1.683v.027h-.593a1.847 1.847 0 0 0-.133-.812 1.034 1.034 0 0 0-.381-.397l-.012-.007a3.817 3.817 0 0 0-.152-.098l-.072-.041-.213-.13.306-.509Z" fill="#fff"/></svg>
